src/pos-icons/escalator-down.svg

<svg height="24" viewBox="0 0 24 24" width="24" xmlns="http://www.w3.org/2000/svg"><path d="m20 8h-1.05l-12 12h-2.95c-1.1 0-2-.89-2-2 0-1.1.9-2 2-2h1.29l1.71-1.71v-4.29c0-.55.45-1 1-1h1c.55 0 1 .45 1 1v1.29l7.29-7.29h2.71c1.11 0 2 .89 2 2s-.89 2-2 2m-11.5-3c.83 0 1.5.67 1.5 1.5s-.67 1.5-1.5 1.5-1.5-.67-1.5-1.5.67-1.5 1.5-1.5m6.33 12.34 5.51-5.51 1.83 1.83-5.51 5.51 1.84 1.83h-5.5v-5.5z"/></svg>

<?xml version="1.0" encoding="UTF-8"?><!DOCTYPE svg PUBLIC "-//W3C//DTD SVG 1.1//EN" "http://www.w3.org/Graphics/SVG/1.1/DTD/svg11.dtd"><svg xmlns="http://www.w3.org/2000/svg" xmlns:xlink="http://www.w3.org/1999/xlink" version="1.1" id="mdi-escalator-down" width="24" height="24" viewBox="0 0 24 24"><path d="M20 8H18.95L6.95 20H4C2.9 20 2 19.11 2 18C2 16.9 2.9 16 4 16H5.29L7 14.29V10C7 9.45 7.45 9 8 9H9C9.55 9 10 9.45 10 10V11.29L17.29 4H20C21.11 4 22 4.89 22 6C22 7.11 21.11 8 20 8M8.5 5C9.33 5 10 5.67 10 6.5C10 7.33 9.33 8 8.5 8C7.67 8 7 7.33 7 6.5C7 5.67 7.67 5 8.5 5M14.83 17.34L20.34 11.83L22.17 13.66L16.66 19.17L18.5 21H13V15.5L14.83 17.34Z" /></svg>
